X:1
T:As I Was A-Walking
Q:1/4=130
I:abc2nwc
M:3/4
L:1/8
K:F
D2|A2A2A2|G2A2G2|F2E2F2|D2z2D2|F3E D2|B2A2G2|A6-|A4DD|A2A2A2|G2G2A2|F3E D2|dd- d2AA|B3B B2|c2c2c2|F6|G6|A6-|A2z2FG|A3B A2|G2F2E2|D6-|D4|]
w:As I was a-walk-ing one morn-ing by chance, I heard a maid mak-ing her moan - I asked what was the mat-ter, she said in a flut-ter - I'm ob-liged to lie tumb-ling a-lone a-lone_I'm ob-liged to lie tumb-ling a-lone_